X:1
T:Munster Buttermilk
T:test
R:single jig
Z:id:hn-slide-29
M:6/8
K:D
dcd edB|A2F FEF|A2F FEF|AFE DFA|
dcd edB|A2F FEF|AFE DEF|1 E2E DFA:|2 E2E D2B|]
A2B d2e|~f3 fed|~e3 edB|~d3 edB|
A2B d2e|~f3 fed|edB ABd|1 efe d2B:|2 efe d2A|]
</abc>
